SVG/clipboard.svg

<?xml version="1.0" encoding="utf-8"?>
<!-- Generated by IcoMoon.io -->
<!DOCTYPE svg PUBLIC "-//W3C//DTD SVG 1.1//EN" "http://www.w3.org/Graphics/SVG/1.1/DTD/svg11.dtd">
<svg version="1.1" xmlns="http://www.w3.org/2000/svg" xmlns:xlink="http://www.w3.org/1999/xlink" width="14" height="14" viewBox="0 0 14 14">
<path fill="#444444" d="M6 13h7v-5h-3.25q-0.312 0-0.531-0.219t-0.219-0.531v-3.25h-3v9zM8 1.75v-0.5q0-0.102-0.074-0.176t-0.176-0.074h-5.5q-0.102 0-0.176 0.074t-0.074 0.176v0.5q0 0.102 0.074 0.176t0.176 0.074h5.5q0.102 0 0.176-0.074t0.074-0.176zM10 7h2.336l-2.336-2.336v2.336zM14 8v5.25q0 0.312-0.219 0.531t-0.531 0.219h-7.5q-0.312 0-0.531-0.219t-0.219-0.531v-1.25h-4.25q-0.312 0-0.531-0.219t-0.219-0.531v-10.5q0-0.312 0.219-0.531t0.531-0.219h8.5q0.312 0 0.531 0.219t0.219 0.531v2.563q0.164 0.102 0.281 0.219l3.188 3.188q0.219 0.219 0.375 0.594t0.156 0.688z"></path>
</svg>

<svg xmlns="http://www.w3.org/2000/svg" viewBox="0 0 14 14"><path d="M6 13h7V8H9.75q-.312 0-.53-.22T9 7.25V4H6v9zM8 1.75v-.5q0-.102-.074-.176T7.75 1h-5.5q-.102 0-.176.074T2 1.25v.5q0 .102.074.176T2.25 2h5.5q.102 0 .176-.074T8 1.75zM10 7h2.336L10 4.664V7zm4 1v5.25q0 .312-.22.53t-.53.22h-7.5q-.312 0-.53-.22T5 13.25V12H.75q-.312 0-.53-.22T0 11.25V.75Q0 .438.22.22T.75 0h8.5q.312 0 .53.22t.22.53v2.563q.164.102.28.22l3.19 3.187q.218.22.374.594t.156.688z" /></svg>
